svg/fluentui-system-icons/ic_fluent_accessibility_checkmark_48_regular.svg

<svg width="48" height="48" viewBox="0 0 48 48" fill="none" xmlns="http://www.w3.org/2000/svg">
<path d="M20.0033 10.5C20.0033 12.0719 20.9102 13.4321 22.2293 14.0859L22.7211 14.2649C23.5497 14.5665 24.4581 14.5665 25.2867 14.2649L25.7784 14.086C27.0976 13.4321 28.0045 12.072 28.0045 10.5C28.0045 8.29086 26.2134 6.5 24.0039 6.5C21.7944 6.5 20.0033 8.29086 20.0033 10.5ZM17.8092 12.4774C17.6103 11.8539 17.5029 11.1895 17.5029 10.5C17.5029 6.91015 20.4135 4 24.0039 4C27.5943 4 30.5049 6.91015 30.5049 10.5C30.5049 11.1895 30.3975 11.8539 30.1986 12.4774L36.2983 10.2576C38.5043 9.45482 40.9435 10.5921 41.7464 12.7977C42.5493 15.0034 41.4119 17.4422 39.2059 18.245L31.0049 21.2295L31.0048 22.3467C30.1342 22.552 29.2975 22.8448 28.5043 23.2154L28.5046 21.0543C28.5046 20.1085 29.0963 19.2636 29.9853 18.9401L38.3507 15.8958C39.2591 15.5652 39.7274 14.561 39.3968 13.6528C39.0662 12.7446 38.0618 12.2763 37.1535 12.6068L26.7548 16.3911C25.9193 16.7818 24.9871 17 24.0039 17C23.0206 17 22.0884 16.7817 21.2529 16.391L10.8543 12.6068C9.94598 12.2763 8.9416 12.7446 8.61099 13.6528C8.28038 14.561 8.74873 15.5652 9.65707 15.8958L18.0226 18.9401C18.9116 19.2636 19.5032 20.1085 19.5032 21.0544L19.5037 26.0178C19.5037 26.6919 19.3739 27.3596 19.1214 27.9846L14.6311 39.0969C14.2689 39.993 14.702 41.013 15.5982 41.375C16.4945 41.7371 17.5146 41.3041 17.8767 40.408L21.4772 31.4977C21.1663 32.6119 21 33.7865 21 35C21 36.1417 21.1472 37.249 21.4236 38.3041L20.195 41.3445C19.3156 43.5208 16.8382 44.5723 14.6616 43.693C12.4849 42.8137 11.4333 40.3367 12.3127 38.1604L16.8031 27.0481C16.9354 26.7207 17.0034 26.371 17.0033 26.0179L17.0029 21.2295L8.8019 18.245C6.59591 17.4422 5.45849 15.0034 6.26141 12.7977C7.06432 10.5921 9.50352 9.45482 11.7095 10.2576L17.8092 12.4774ZM45 35C45 41.0751 40.0751 46 34 46C27.9249 46 23 41.0751 23 35C23 28.9249 27.9249 24 34 24C40.0751 24 45 28.9249 45 35ZM40.7071 30.2929C40.3166 29.9024 39.6834 29.9024 39.2929 30.2929L32 37.5858L28.7071 34.2929C28.3166 33.9024 27.6834 33.9024 27.2929 34.2929C26.9024 34.6834 26.9024 35.3166 27.2929 35.7071L31.2929 39.7071C31.6834 40.0976 32.3166 40.0976 32.7071 39.7071L40.7071 31.7071C41.0976 31.3166 41.0976 30.6834 40.7071 30.2929Z" fill="#212121"/>
</svg>

<svg xmlns="http://www.w3.org/2000/svg" width="48" height="48"><path d="M20.003 10.5a4 4 0 0 0 2.226 3.586l.492.179a3.75 3.75 0 0 0 2.566 0l.491-.179a4 4 0 1 0-5.775-3.586Zm-2.194 1.977A6.5 6.5 0 0 1 24.004 4a6.5 6.5 0 0 1 6.195 8.477l6.1-2.22a4.25 4.25 0 0 1 2.907 7.988l-8.201 2.985v1.117a12.9 12.9 0 0 0-2.5.868v-2.16a2.25 2.25 0 0 1 1.48-2.115l8.366-3.044a1.75 1.75 0 1 0-1.197-3.29l-10.4 3.785a6.477 6.477 0 0 1-2.75.609 6.477 6.477 0 0 1-2.751-.609l-10.399-3.784a1.75 1.75 0 0 0-1.197 3.289l8.366 3.044a2.25 2.25 0 0 1 1.48 2.114v4.964a5.25 5.25 0 0 1-.382 1.967l-4.49 11.112a1.75 1.75 0 1 0 3.246 1.311l3.6-8.91A13.014 13.014 0 0 0 21 35c0 1.142.147 2.249.424 3.304l-1.229 3.04a4.25 4.25 0 0 1-7.882-3.184l4.49-11.112c.132-.327.2-.677.2-1.03V21.23l-8.201-2.985a4.25 4.25 0 1 1 2.908-7.987l6.1 2.22ZM45 35c0 6.075-4.925 11-11 11s-11-4.925-11-11 4.925-11 11-11 11 4.925 11 11Zm-4.293-4.707a1 1 0 0 0-1.414 0L32 37.586l-3.293-3.293a1 1 0 0 0-1.414 1.414l4 4a1 1 0 0 0 1.414 0l8-8a1 1 0 0 0 0-1.414Z"/></svg>
